X:83
T:Martin prit sa serpe
R:Chanson
O:France
B:Le livre des Chansons (Henri Davenson) n°83
Z:<anamnese@caramail.com> -- http://anamnese.fr.st
M:C|
L:1/4
Q:1/4=110
K:F
G A | B2A2 | G^FGA | B2A2 | G2DE | ^FGF2 | GG^FG |
D2D>E | ^FEFG | ^F2G>A | B>cA2 | G2 ||


